X:27
T:Oj u gaju pry Dunaju
%Eb
Q:1/4=90
L:1/8
M:3/4
K:Cmaj
A,A, A,2 C2 | EE D2 C2 | B,B, B,2 D2 | D2 C4 |
A,A, A,2 C2 | EE D2 C2 | B,B, B,2 D2 | D2 (C2D2) |
|: E2 E2 E2 | EF G2 E2 | DD D2 F2 | F2 E4 |
A,A, A,2 C2 | EE D2 C2 | B,B, B,2 D2 | D2 C4 :|

